X: 217
M: 3/4
L: 1/8
K: D
[|\
g2g2g2 | g2B2B2 |
gedefe | deBdA2 |\
gfgaga | fefgfg | edefaf | efedB2 |\
a2g2f2 | d3ff2 | A2B2c2 | d4c2 |]
[|\
gfgag2 | fe(fg)ag | (ed)(ef)(ge) | (fe)(dc)(BA) |\
a2gfed | e3fg2 | A2B2c2 | d6 |]

